_includes/icons/ios-skype.svg

<svg fill="#666" height="50" viewBox="0 0 50 50" width="50" xmlns="http://www.w3.org/2000/svg"><path d="m14.28125 0c-7.863281 0-14.28125 6.320313-14.28125 14.09375 0 2.457031.6875 4.734375 1.8125 6.75-.273437 1.429688-.4375 2.902344-.4375 4.40625 0 13.019531 10.699219 23.5625 23.875 23.5625 1.375 0 2.714844-.121094 4.03125-.34375 1.933594.972656 4.121094 1.53125 6.4375 1.53125 7.863281 0 14.28125-6.316406 14.28125-14.09375 0-2.117187-.519531-4.101562-1.375-5.90625.324219-1.542969.53125-3.121094.53125-4.75 0-13.011719-10.726562-23.5625-23.90625-23.5625-1.261719 0-2.503906.125-3.71875.3125-2.128906-1.246094-4.59375-2-7.25-2zm0 2c2.410156 0 4.640625.667969 6.53125 1.84375.203125.132813.445313.1875.6875.15625 1.222656-.207031 2.472656-.3125 3.75-.3125 12.113281 0 21.90625 9.648438 21.90625 21.5625 0 1.589844-.164062 3.132813-.5 4.625-.0625.230469-.039062.472656.0625.6875.820313 1.613281 1.28125 3.410156 1.28125 5.34375 0 6.683594-5.480469 12.09375-12.28125 12.09375-2.105469 0-4.089844-.523437-5.8125-1.4375-.191406-.097656-.410156-.132812-.625-.09375-1.304687.238281-2.660156.34375-4.03125.34375-12.113281 0-21.875-9.636719-21.875-21.5625 0-1.484375.148438-2.941406.4375-4.34375.050781-.246094.003906-.503906-.125-.71875-1.074219-1.796875-1.6875-3.859375-1.6875-6.09375 0-6.675781 5.484375-12.09375 12.28125-12.09375zm10.8125 6.375c-2.632812 0-5 .355469-7.03125 1.09375-.007812.003906-.023437-.003906-.03125 0-2.050781.75-3.722656 1.890625-4.875 3.375-1.164062 1.492188-1.78125 3.277344-1.78125 5.1875 0 1.976563.582031 3.753906 1.71875 5.15625 1.085938 1.335938 2.539063 2.382813 4.3125 3.125 1.6875.707031 3.769531 1.300781 6.1875 1.8125 1.730469.359375 3.132813.695313 4.125 1 .878906.269531 1.570313.671875 2.0625 1.125.398438.367188.5625.730469.5625 1.40625 0 .796875-.324219 1.324219-1.28125 1.96875-.953125.644531-2.277344 1.03125-4.03125 1.03125-1.285156 0-2.273437-.203125-2.90625-.5-.707031-.328125-1.234375-.726562-1.5625-1.15625-.410156-.53125-.804687-1.230469-1.1875-2.09375-.40625-.941406-.933594-1.738281-1.625-2.3125-.734375-.609375-1.675781-.90625-2.65625-.90625-1.160156 0-2.246094.371094-3.0625 1.125-.804687.75-1.28125 1.789063-1.28125 2.875 0 1.574219.589844 3.152344 1.65625 4.65625 1.050781 1.5 2.457031 2.707031 4.125 3.59375 2.339844 1.226563 5.25 1.8125 8.65625 1.8125 2.839844 0 5.375-.429687 7.53125-1.3125 2.167969-.886719 3.90625-2.15625 5.09375-3.8125 1.179688-1.648437 1.777344-3.574219 1.78125-5.625 0-1.691406-.339844-3.203125-1.0625-4.46875-.699219-1.222656-1.6875-2.246094-2.90625-3.03125-1.167969-.75-2.566406-1.371094-4.15625-1.875-1.535156-.484375-3.257812-.945312-5.125-1.34375-.015625-.003906-.015625.003906-.03125 0-1.4375-.328125-2.492187-.585937-3.09375-.75-.550781-.152344-1.136719-.355469-1.6875-.625-.480469-.238281-.808594-.519531-1.03125-.78125-.167969-.203125-.21875-.335937-.21875-.65625 0-.472656.179688-.835937.96875-1.34375.773438-.503906 1.894531-.78125 3.40625-.78125 1.652344 0 2.75.304688 3.21875.65625.652344.484375 1.265625 1.21875 1.78125 2.1875l.03125.03125c.523438.886719 1.003906 1.542969 1.5625 2.03125.695313.601563 1.617188.84375 2.625.84375 1.164063 0 2.257813-.425781 3.0625-1.25.777344-.792969 1.25-1.808594 1.25-2.875 0-1.027344-.304687-2.074219-.84375-3.0625-.554687-1.015625-1.40625-1.9375-2.5-2.78125-1.117187-.863281-2.496094-1.542969-4.09375-2.03125-1.628906-.5-3.535156-.71875-5.65625-.71875zm0 2c1.972656 0 3.6875.230469 5.0625.65625 1.414063.433594 2.589844 1.007813 3.46875 1.6875.925781.714844 1.578125 1.445313 1.96875 2.15625.410156.75.59375 1.449219.59375 2.09375 0 .546875-.183594.984375-.65625 1.46875-.445312.460938-.957031.65625-1.65625.65625-.6875 0-1.085937-.148437-1.3125-.34375-.289062-.25-.683594-.761719-1.125-1.5-.011719-.023437-.019531-.039062-.03125-.0625-.621094-1.144531-1.394531-2.097656-2.3125-2.78125-1.066406-.800781-2.5625-1.0625-4.4375-1.0625-1.773437 0-3.292969.34375-4.5 1.125-1.125.726563-1.875 1.789063-1.875 3 0 .707031.242188 1.398438.6875 1.9375.4375.515625 1.007813.945313 1.6875 1.28125.65625.324219 1.34375.59375 2.03125.78125.664063.179688 1.746094.445313 3.21875.78125 1.828125.386719 3.5.820313 4.96875 1.28125 1.457031.464844 2.707031 1.027344 3.6875 1.65625.96875.625 1.714844 1.40625 2.25 2.34375.511719.898438.78125 2.042969.78125 3.46875 0 1.667969-.460937 3.148438-1.40625 4.46875-.933594 1.304688-2.328125 2.351563-4.21875 3.125-1.855469.761719-4.144531 1.15625-6.78125 1.15625-3.171875 0-5.757812-.535156-7.71875-1.5625-1.410156-.75-2.539062-1.761719-3.40625-3-.011719 0-.019531 0-.03125 0-.886719-1.253906-1.28125-2.421875-1.28125-3.5 0-.566406.199219-.980469.65625-1.40625.441406-.40625.933594-.59375 1.6875-.59375.589844 0 1.007813.128906 1.375.4375.367188.304688.746094.824219 1.0625 1.5625l.03125.03125c.429688.972656.902344 1.804688 1.4375 2.5.5625.734375 1.335938 1.3125 2.28125 1.75 1.027344.480469 2.277344.6875 3.75.6875 2.03125 0 3.777344-.417969 5.15625-1.34375 1.324219-.890625 2.15625-2.199219 2.15625-3.65625 0-1.109375-.433594-2.148437-1.21875-2.875-.757812-.699219-1.703125-1.222656-2.8125-1.5625-1.089844-.335937-2.546875-.664062-4.3125-1.03125-2.332031-.492187-4.289062-1.082031-5.8125-1.71875-1.519531-.636719-2.679687-1.511719-3.53125-2.5625-.832031-1.027344-1.28125-2.269531-1.28125-3.875 0-1.503906.441406-2.8125 1.34375-3.96875h.03125c.882813-1.140625 2.179688-2.066406 3.96875-2.71875 1.757813-.644531 3.910156-.96875 6.375-.96875z"/></svg>

<svg xmlns="http://www.w3.org/2000/svg" viewBox="0 0 50 50" width="50" height="50" fill="#666"><path d="M 14.28125 0 C 6.417969 0 0 6.320313 0 14.09375 C 0 16.550781 0.6875 18.828125 1.8125 20.84375 C 1.539063 22.273438 1.375 23.746094 1.375 25.25 C 1.375 38.269531 12.074219 48.8125 25.25 48.8125 C 26.625 48.8125 27.964844 48.691406 29.28125 48.46875 C 31.214844 49.441406 33.402344 50 35.71875 50 C 43.582031 50 50 43.683594 50 35.90625 C 50 33.789063 49.480469 31.804688 48.625 30 C 48.949219 28.457031 49.15625 26.878906 49.15625 25.25 C 49.15625 12.238281 38.429688 1.6875 25.25 1.6875 C 23.988281 1.6875 22.746094 1.8125 21.53125 2 C 19.402344 0.753906 16.9375 0 14.28125 0 Z M 14.28125 2 C 16.691406 2 18.921875 2.667969 20.8125 3.84375 C 21.015625 3.976563 21.257813 4.03125 21.5 4 C 22.722656 3.792969 23.972656 3.6875 25.25 3.6875 C 37.363281 3.6875 47.15625 13.335938 47.15625 25.25 C 47.15625 26.839844 46.992188 28.382813 46.65625 29.875 C 46.59375 30.105469 46.617188 30.347656 46.71875 30.5625 C 47.539063 32.175781 48 33.972656 48 35.90625 C 48 42.589844 42.519531 48 35.71875 48 C 33.613281 48 31.628906 47.476563 29.90625 46.5625 C 29.714844 46.464844 29.496094 46.429688 29.28125 46.46875 C 27.976563 46.707031 26.621094 46.8125 25.25 46.8125 C 13.136719 46.8125 3.375 37.175781 3.375 25.25 C 3.375 23.765625 3.523438 22.308594 3.8125 20.90625 C 3.863281 20.660156 3.816406 20.402344 3.6875 20.1875 C 2.613281 18.390625 2 16.328125 2 14.09375 C 2 7.417969 7.484375 2 14.28125 2 Z M 25.09375 8.375 C 22.460938 8.375 20.09375 8.730469 18.0625 9.46875 C 18.054688 9.472656 18.039063 9.464844 18.03125 9.46875 C 15.980469 10.21875 14.308594 11.359375 13.15625 12.84375 C 11.992188 14.335938 11.375 16.121094 11.375 18.03125 C 11.375 20.007813 11.957031 21.785156 13.09375 23.1875 C 14.179688 24.523438 15.632813 25.570313 17.40625 26.3125 C 19.09375 27.019531 21.175781 27.613281 23.59375 28.125 C 25.324219 28.484375 26.726563 28.820313 27.71875 29.125 C 28.597656 29.394531 29.289063 29.796875 29.78125 30.25 C 30.179688 30.617188 30.34375 30.980469 30.34375 31.65625 C 30.34375 32.453125 30.019531 32.980469 29.0625 33.625 C 28.109375 34.269531 26.785156 34.65625 25.03125 34.65625 C 23.746094 34.65625 22.757813 34.453125 22.125 34.15625 C 21.417969 33.828125 20.890625 33.429688 20.5625 33 C 20.152344 32.46875 19.757813 31.769531 19.375 30.90625 C 18.96875 29.964844 18.441406 29.167969 17.75 28.59375 C 17.015625 27.984375 16.074219 27.6875 15.09375 27.6875 C 13.933594 27.6875 12.847656 28.058594 12.03125 28.8125 C 11.226563 29.5625 10.75 30.601563 10.75 31.6875 C 10.75 33.261719 11.339844 34.839844 12.40625 36.34375 C 13.457031 37.84375 14.863281 39.050781 16.53125 39.9375 C 18.871094 41.164063 21.78125 41.75 25.1875 41.75 C 28.027344 41.75 30.5625 41.320313 32.71875 40.4375 C 34.886719 39.550781 36.625 38.28125 37.8125 36.625 C 38.992188 34.976563 39.589844 33.050781 39.59375 31 C 39.59375 29.308594 39.253906 27.796875 38.53125 26.53125 C 37.832031 25.308594 36.84375 24.285156 35.625 23.5 C 34.457031 22.75 33.058594 22.128906 31.46875 21.625 C 29.933594 21.140625 28.210938 20.679688 26.34375 20.28125 C 26.328125 20.277344 26.328125 20.285156 26.3125 20.28125 C 24.875 19.953125 23.820313 19.695313 23.21875 19.53125 C 22.667969 19.378906 22.082031 19.175781 21.53125 18.90625 C 21.050781 18.667969 20.722656 18.386719 20.5 18.125 C 20.332031 17.921875 20.28125 17.789063 20.28125 17.46875 C 20.28125 16.996094 20.460938 16.632813 21.25 16.125 C 22.023438 15.621094 23.144531 15.34375 24.65625 15.34375 C 26.308594 15.34375 27.40625 15.648438 27.875 16 C 28.527344 16.484375 29.140625 17.21875 29.65625 18.1875 C 29.667969 18.199219 29.675781 18.207031 29.6875 18.21875 C 30.210938 19.105469 30.691406 19.761719 31.25 20.25 C 31.945313 20.851563 32.867188 21.09375 33.875 21.09375 C 35.039063 21.09375 36.132813 20.667969 36.9375 19.84375 C 37.714844 19.050781 38.1875 18.035156 38.1875 16.96875 C 38.1875 15.941406 37.882813 14.894531 37.34375 13.90625 C 36.789063 12.890625 35.9375 11.96875 34.84375 11.125 C 33.726563 10.261719 32.347656 9.582031 30.75 9.09375 C 29.121094 8.59375 27.214844 8.375 25.09375 8.375 Z M 25.09375 10.375 C 27.066406 10.375 28.78125 10.605469 30.15625 11.03125 C 31.570313 11.464844 32.746094 12.039063 33.625 12.71875 C 34.550781 13.433594 35.203125 14.164063 35.59375 14.875 C 36.003906 15.625 36.1875 16.324219 36.1875 16.96875 C 36.1875 17.515625 36.003906 17.953125 35.53125 18.4375 C 35.085938 18.898438 34.574219 19.09375 33.875 19.09375 C 33.1875 19.09375 32.789063 18.945313 32.5625 18.75 C 32.273438 18.5 31.878906 17.988281 31.4375 17.25 C 31.425781 17.226563 31.417969 17.210938 31.40625 17.1875 C 30.785156 16.042969 30.011719 15.089844 29.09375 14.40625 C 28.027344 13.605469 26.53125 13.34375 24.65625 13.34375 C 22.882813 13.34375 21.363281 13.6875 20.15625 14.46875 C 19.03125 15.195313 18.28125 16.257813 18.28125 17.46875 C 18.28125 18.175781 18.523438 18.867188 18.96875 19.40625 C 19.40625 19.921875 19.976563 20.351563 20.65625 20.6875 C 21.3125 21.011719 22 21.28125 22.6875 21.46875 C 23.351563 21.648438 24.433594 21.914063 25.90625 22.25 C 27.734375 22.636719 29.40625 23.070313 30.875 23.53125 C 32.332031 23.996094 33.582031 24.558594 34.5625 25.1875 C 35.53125 25.8125 36.277344 26.59375 36.8125 27.53125 C 37.324219 28.429688 37.59375 29.574219 37.59375 31 C 37.59375 32.667969 37.132813 34.148438 36.1875 35.46875 C 35.253906 36.773438 33.859375 37.820313 31.96875 38.59375 C 30.113281 39.355469 27.824219 39.75 25.1875 39.75 C 22.015625 39.75 19.429688 39.214844 17.46875 38.1875 C 16.058594 37.4375 14.929688 36.425781 14.0625 35.1875 C 14.050781 35.1875 14.042969 35.1875 14.03125 35.1875 C 13.144531 33.933594 12.75 32.765625 12.75 31.6875 C 12.75 31.121094 12.949219 30.707031 13.40625 30.28125 C 13.847656 29.875 14.339844 29.6875 15.09375 29.6875 C 15.683594 29.6875 16.101563 29.816406 16.46875 30.125 C 16.835938 30.429688 17.214844 30.949219 17.53125 31.6875 C 17.542969 31.699219 17.550781 31.707031 17.5625 31.71875 C 17.992188 32.691406 18.464844 33.523438 19 34.21875 C 19.5625 34.953125 20.335938 35.53125 21.28125 35.96875 C 22.308594 36.449219 23.558594 36.65625 25.03125 36.65625 C 27.0625 36.65625 28.808594 36.238281 30.1875 35.3125 C 31.511719 34.421875 32.34375 33.113281 32.34375 31.65625 C 32.34375 30.546875 31.910156 29.507813 31.125 28.78125 C 30.367188 28.082031 29.421875 27.558594 28.3125 27.21875 C 27.222656 26.882813 25.765625 26.554688 24 26.1875 C 21.667969 25.695313 19.710938 25.105469 18.1875 24.46875 C 16.667969 23.832031 15.507813 22.957031 14.65625 21.90625 C 13.824219 20.878906 13.375 19.636719 13.375 18.03125 C 13.375 16.527344 13.816406 15.21875 14.71875 14.0625 C 14.730469 14.0625 14.738281 14.0625 14.75 14.0625 C 15.632813 12.921875 16.929688 11.996094 18.71875 11.34375 C 20.476563 10.699219 22.628906 10.375 25.09375 10.375 Z"/></svg>
